!!!COM: Scriabin, Alexander
!!!OTL@@FR: Mazurka
!!!OTL@@EN:
!!!OPR@@FR: 10 Mazurkas for piano
!!!OPR@@EN:
!!!OPS: 3
!!!ONM: 6
!!!ODT: 1888–1889
!!!AGN: Mazurka
**kern	**kern	**dynam
*staff2	*staff1	*staff1/2
*Ipiano	*Ipiano	*
*clefG2	*clefG2	*
*k[f#c#g#d#]	*k[f#c#g#d#]	*
*c#:	*c#:	*
*M3/4	*M3/4	*
=1	=1	=1
4r	8ggg# 8gggg#	.
.	8r	.
4g#	4r	.
8a	8cc# 8ee 8ccc#	.
8r	8r	.
=2	=2	=2
4r	8ggg# 8gggg#	.
.	8r	.
12g#L	4r	.
12a	.	.
12g#J	.	.
8f#	8b#X 8dd# 8gg#	.
8r	8r	.
=3	=3	=3
4r	8ggg# 8gggg#	.
.	8r	.
4e	4r	.
4d#	4g# 4b#X 4ff# 4gg#	.
=4	=4	=4
8d#L	4r	.
8eJ	.	.
4c#	4r	.
4r	4g# 4cc# 4ee 4gg#	.
*clefF4	*	*
=5	=5	=5
*	*^	*
4GG#	4raa	4rc	.
4G# 4f#	4gg#	4b#X	.
4G# 4f#	4aa	4b#	.
=6	=6	=6	=6
4CC#	4raa	4rc	.
4G# 4e	4gg#	4cc#	.
4G#X 4e	4ggn	4cc#	.
=7	=7	=7	=7
4GG#	4ff#	4rc	.
4G# 4f#	4ee	4b#X	.
4G# 4f#	4dd#	4b#	.
*	*v	*v	*
=8	=8	=8
4CC#	8dd#L	.
.	8eeJ	.
4G# 4e	4cc#	.
4r	4g#	.
*clefG2	*	*
=9	=9	=9
4r	8ggg# 8gggg#	.
.	8r	.
4g#	4r	.
8a	8cc# 8ee 8ccc#	.
8r	8r	.
=10	=10	=10
4r	8ggg# 8gggg#	.
.	8r	.
12g#L	4r	.
12a	.	.
12g#J	.	.
8f#	8b#X 8dd# 8gg#	.
8r	8r	.
=11	=11	=11
4r	8ggg# 8gggg#	.
.	8r	.
4e	4r	.
4d#	4g# 4b#X 4ff# 4gg#	.
=12	=12	=12
8d#L	4r	.
8eJ	.	.
4c#	4r	.
4r	4g# 4cc# 4ee 4gg#	.
*clefF4	*	*
=13	=13	=13
*	*^	*
4GG#	4raa	4rc	.
4G# 4f#	4gg#	4b#X	.
4G# 4f#	4aa	4b#	.
=14	=14	=14	=14
4CC#	4raa	4rc	.
4G# 4e	4gg#	4cc#	.
4G#X 4e	4ggn	4cc#	.
=15	=15	=15	=15
4GG#	4ff#	4rc	.
4G# 4f#	4ee	4b#X	.
4G# 4f#	4dd#	4b#	.
*	*v	*v	*
=16	=16	=16
2.r	2.r	.
*clefG2	*	*
=17	=17	=17
4A	4r	.
4e 4cc#	4aa 4eee	.
4e 4ddn	4bb 4aaa	.
=18	=18	=18
4A	4r	.
4e 4cc#	4aa 4eee	.
4e 4ddn	4gg# 4bb	.
=19	=19	=19
4A	4r	.
4e 4cc#	4aa 4ccc#	.
.	8qbb#X/	.
4e 4cc#	4aa 4ccc#	.
=20	=20	=20
*	*^	*
4E	2.eee	4rc	.
4e 4b	.	4gg# 4bb	.
4e 4b	.	4gg# 4bb	.
*	*v	*v	*
=21	=21	=21
4A	4r	.
4e 4cc#	4aa 4eee	.
4e 4ddn	4bb 4aaa	.
=22	=22	=22
4A	4r	.
4e 4cc#	4aa 4eee	.
4e 4ddn	4gg# 4bb	.
=23	=23	=23
4A	4r	.
4e 4cc#	4aa 4ccc#	.
.	8qccc#/	.
4e 4ddn	4gg# 4bb	.
=24	=24	=24
*	*^	*
4A	2.aa	4rc	.
4e 4cc#	.	4ee	.
4e 4cc#	.	4ee	.
*	*v	*v	*
=25	=25	=25
4A	4r	.
4e 4cc#	4aa 4eee	.
4e 4ddn	4bb 4aaa	.
=26	=26	=26
4A	4r	.
4e 4cc#	4aa 4eee	.
4e 4ddn	4gg# 4bb	.
=27	=27	=27
4A	4r	.
4e 4cc#	4aa 4ccc#	.
.	8qbb#X/	.
4e 4cc#	4aa 4ccc#	.
=28	=28	=28
*	*^	*
4E	2.eee	4rc	.
4e 4b	.	4gg# 4bb	.
4e 4b	.	4gg# 4bb	.
*	*v	*v	*
=29	=29	=29
4A	4r	.
4e 4cc#	4aa 4eee	.
4e 4ddn	4bb 4aaa	.
=30	=30	=30
4A	4r	.
4e 4cc#	4aa 4eee	.
4e 4ddn	4gg# 4bb	.
=31	=31	=31
4A	4r	.
4e 4cc#	4aa 4ccc#	.
.	8qccc#/	.
4e 4ddn	4gg# 4bb	.
=32	=32	=32
4a 4cc#	4aa	.
4A	4r	.
4r	4r	.
=33	=33	=33
4r	8ggg# 8gggg#	.
.	8r	.
4g#	4r	.
8a	8cc# 8ee 8ccc#	.
8r	8r	.
=34	=34	=34
4r	8ggg# 8gggg#	.
.	8r	.
12g#L	4r	.
12a	.	.
12g#J	.	.
8f#	8b#X 8dd# 8gg#	.
8r	8r	.
=35	=35	=35
4r	8ggg# 8gggg#	.
.	8r	.
4e	4r	.
4d#	4g# 4b#X 4ff# 4gg#	.
=36	=36	=36
8d#L	4r	.
8eJ	.	.
4c#	4r	.
4r	4g# 4cc# 4ee 4gg#	.
*clefF4	*	*
=37	=37	=37
*	*^	*
4GG#	4raa	4rc	.
4G# 4f#	4gg#	4b#X	.
4G# 4f#	4aa	4b#	.
=38	=38	=38	=38
4CC#	4raa	4rc	.
4G# 4e	4gg#	4cc#	.
4G#X 4e	4ggn	4cc#	.
=39	=39	=39	=39
4GG#	4ff#	4rc	.
4G# 4f#	4ee	4b#X	.
4G# 4f#	4dd#	4b#	.
*	*v	*v	*
=40	=40	=40
4CC#	8dd#L	.
.	8eeJ	.
4G# 4e	4cc#	.
4r	4g#	.
*clefG2	*	*
=41	=41	=41
4r	8ggg# 8gggg#	.
.	8r	.
4g#	4r	.
8a	8cc# 8ee 8ccc#	.
8r	8r	.
=42	=42	=42
4r	8ggg# 8gggg#	.
.	8r	.
12g#L	4r	.
12a	.	.
12g#J	.	.
8f#	8b#X 8dd# 8gg#	.
8r	8r	.
=43	=43	=43
4r	8ggg# 8gggg#	.
.	8r	.
4e	4r	.
4d#	4g# 4b#X 4ff# 4gg#	.
=44	=44	=44
8d#L	4r	.
8eJ	.	.
4c#	4r	.
4r	4g# 4cc# 4ee 4gg#	.
*clefF4	*	*
=45	=45	=45
*	*^	*
4GG#	4raa	4rc	.
4G# 4f#	4gg#	4b#X	.
4G# 4f#	4aa	4b#	.
=46	=46	=46	=46
4CC#	4raa	4rc	.
4G# 4e	4gg#	4cc#	.
4G#X 4e	4ggn	4cc#	.
=47	=47	=47	=47
4GG#	4ff#	4rc	.
4G# 4f#	4ee	4b#X	.
4G# 4f#	4dd#	4b#	.
*	*v	*v	*
=48	=48	=48
4CC#	8dd#L	.
.	8eeJ	.
4G# 4e	4cc#	.
4r	4g#	.
=49	=49	=49
4BB	4r	.
4B 4a	4dd# 4bb	.
4B 4a	4dd# 4ccc#	.
=50	=50	=50
4E	4r	.
4B 4g#	4ee 4bb	.
4Bn 4g#	4ee 4bb-X	.
=51	=51	=51
4BB	4aa	.
4B 4a	4dd# 4gg#	.
4B 4a	4dd# 4ff#	.
=52	=52	=52
4E	8ff#L	.
.	8gg#J	.
4B 4g#	4ee	.
4r	4b	.
=53	=53	=53
*^	*^	*
4rc	[2.F#	4gg#	[2.a#X	.
[4e	.	4ggn	.	.
[4c# 4e_	.	4ff#	.	.
=54	=54	=54	=54	=54
2.c#] 2.e] 2.a#X	2.F#]	4ffn	2.a#]	.
.	.	4ee	.	.
.	.	4dd#	.	.
*v	*v	*	*	*
=55	=55	=55	=55
2.F# 2.c#	4cc#	2.a#X	.
.	4dd#	.	.
.	4cc#	.	.
=56	=56	=56	=56
2.E 2.A#X	4b#X	2.g#	.
.	4cc#	.	.
.	4dd#	.	.
=57	=57	=57	=57
*^	*	*	*
4rc	[2.D#	4ee	[2.f##X	.
[4c#	.	4dd#	.	.
[4A#X 4c#_	.	4ddn	.	.
=58	=58	=58	=58	=58
2.A#] 2.c#] 2.f##X	2.D#]	4cc#	2.f##]	.
.	.	4ccn	.	.
.	.	4b	.	.
*v	*v	*	*	*
=59	=59	=59	=59
2.E	4a#X	2.c# 2.g#	.
.	4g##X	.	.
.	4a#	.	.
=60	=60	=60	=60
2.D#	2.dd#	2.c# 2.f##X	.
*	*v	*v	*
=61||	=61||	=61||
*k[f#c#g#d#a#]	*k[f#c#g#d#a#]	*
*^	*	*
2D#	[2.GG#	4r	.
.	.	4B 4d# 4g#	.
4D#	.	4r	.
=62	=62	=62	=62
2F#	2.GG#_	4r	.
.	.	4B 4d# 4g#	.
4F#	.	4r	.
=63	=63	=63	=63
2Fn	2.GG#_	4r	.
.	.	4B 4dn 4g#	.
4F	.	4r	.
=64	=64	=64	=64
2E	2.GG#]	4r	.
.	.	4A# 4c# 4f##X	.
4E	.	4r	.
=65	=65	=65	=65
2D#	[2.GG#	4r	.
.	.	4B 4d# 4g#	.
4D#	.	4r	.
=66	=66	=66	=66
2G#	2.GG#]	4r	.
.	.	4B 4d# 4g#	.
4G#	.	4r	.
=67	=67	=67	=67
2B	[2.AA#	4r	.
.	.	4d# 4g#	.
4B	.	4r	.
=68	=68	=68	=68
2A#	2.AA#]	4r	.
.	.	4c##X 4g# 4a#	.
4A#	.	4r	.
=69	=69	=69	=69
2A#	2.D#	4r	.
.	.	4d# 4f##X 4a#	.
4c#X	.	4r	.
*v	*v	*	*
=70	=70	=70
2e	4r	.
.	4f##X 4a# 4cc#	.
4d#	4r	.
=71	=71	=71
2c#	4r	.
.	4f##X 4a# 4ee	.
4B	4r	.
=72	=72	=72
2A#	4r	.
.	4c# 4f##X 4dd#	.
4G#	4r	.
=73	=73	=73
2F##X	4r	.
.	4d# 4a# 4cc# 4dd#	.
4E	4r	.
=74	=74	=74
2D#	4r	.
.	4A# 4f##X 4cc#	.
4C##X	4r	.
=75	=75	=75
2E	4r	.
.	4A# 4f##X 4cc#	.
4D#	4r	.
=76	=76	=76
2F#X	4r	.
.	4A# 4c# 4a#	.
4E	4r	.
=77	=77	=77
*^	*	*
2D#	[2.GG#	4r	.
.	.	4B 4d# 4g#	.
4D#	.	4r	.
=78	=78	=78	=78
2F#	2.GG#_	4r	.
.	.	4B 4d# 4g#	.
4F#	.	4r	.
=79	=79	=79	=79
2Fn	2.GG#_	4r	.
.	.	4B 4dn 4g#	.
4F	.	4r	.
=80	=80	=80	=80
2E	2.GG#]	4r	.
.	.	4A# 4c# 4f##X	.
4E	.	4r	.
=81	=81	=81	=81
2D#	[2.GG#	4r	.
.	.	4B 4d# 4g#	.
4D#	.	4r	.
=82	=82	=82	=82
2F#	2.GG#_	4r	.
.	.	4B 4d# 4g#	.
4F#	.	4r	.
=83	=83	=83	=83
2Fn	2.GG#_	4r	.
.	.	4B 4dn 4g#	.
4F	.	4r	.
=84	=84	=84	=84
2E	2.GG#]	4r	.
.	.	4G# 4A##X 4c##X	.
4E	.	4r	.
=85	=85	=85	=85
2D#	2.GG#	4r	.
.	.	4G# 4B#X 4d#	.
4F#	.	4r	.
*v	*v	*	*
=86	=86	=86
2An	4r	.
.	4B#X 4d# 4f#	.
4G#	4r	.
=87	=87	=87
2F#	4r	.
.	4B#X 4d# 4an	.
4E	4r	.
=88	=88	=88
2D#	4r	.
.	4F# 4B#X 4g#	.
4C#	4r	.
=89	=89	=89
2BB#X	4r	.
.	4G# 4d# 4f# 4g#	.
4AAn	4r	.
*	*clefF4	*
=90	=90	=90
2GG#	4r	.
.	4D# 4B#X 4f#	.
4FF##X	4r	.
=91	=91	=91
4AAn	4r	.
[2GG#	[2D# [2B#X [2f#	.
=92	=92	=92
2.GGG# 2.GG#]	2.D#] 2.B#] 2.f#]	.
*clefG2	*clefG2	*
=93||	=93||	=93||
*k[f#c#g#d#]	*k[f#c#g#d#]	*
4r	8ggg# 8gggg#	.
.	8r	.
4g#	4r	.
8a	8cc# 8ee 8ccc#	.
8r	8r	.
=94	=94	=94
4r	8ggg# 8gggg#	.
.	8r	.
12g#L	4r	.
12a	.	.
12g#J	.	.
8f#	8b#X 8dd# 8gg#	.
8r	8r	.
=95	=95	=95
4r	8ggg# 8gggg#	.
.	8r	.
4e	4r	.
4d#	4g# 4b#X 4ff# 4gg#	.
=96	=96	=96
8d#L	4r	.
8eJ	.	.
4c#	4r	.
4r	4g# 4cc# 4ee 4gg#	.
*clefF4	*	*
=97	=97	=97
*	*^	*
4GG#	4raa	4rc	.
4G# 4f#	4gg#	4b#X	.
4G# 4f#	4aa	4b#	.
=98	=98	=98	=98
4CC#	4raa	4rc	.
4G# 4e	4gg#	4cc#	.
4G#X 4e	4ggn	4cc#	.
=99	=99	=99	=99
4GG#	4ff#	4rc	.
4G# 4f#	4ee	4b#X	.
4G# 4f#	4dd#	4b#	.
*	*v	*v	*
=100	=100	=100
4CC#	8dd#L	.
.	8eeJ	.
4G# 4e	4cc#	.
4r	4g#	.
*clefG2	*	*
=101	=101	=101
4r	8ggg# 8gggg#	.
.	8r	.
4g#	4r	.
8a	8cc# 8ee 8ccc#	.
8r	8r	.
=102	=102	=102
4r	8ggg# 8gggg#	.
.	8r	.
12g#L	4r	.
12a	.	.
12g#J	.	.
8f#	8b#X 8dd# 8gg#	.
8r	8r	.
=103	=103	=103
4r	8ggg# 8gggg#	.
.	8r	.
4e	4r	.
4d#	4g# 4b#X 4ff# 4gg#	.
=104	=104	=104
8d#L	4r	.
8eJ	.	.
4c#	4r	.
4r	4g# 4cc# 4ee 4gg#	.
*clefF4	*	*
=105	=105	=105
*	*^	*
4GG#	4raa	4rc	.
4G# 4f#	4gg#	4b#X	.
4G# 4f#	4aa	4b#	.
=106	=106	=106	=106
4CC#	4raa	4rc	.
4G# 4e	4gg#	4cc#	.
4G#X 4e	4ggn	4cc#	.
=107	=107	=107	=107
4GG#	4ff#	4rc	.
4G# 4f#	4ee	4b#X	.
4G# 4f#	4dd#	4b#	.
*	*v	*v	*
=108	=108	=108
4CC#	8dd#L	.
.	8eeJ	.
4G# 4e	4cc#	.
4r	4g#	.
=109	=109	=109
4C#	4r	.
4c# 4b	4ee#X 4ccc#	.
4c# 4b	4ee# 4dddn	.
=110	=110	=110
4F#	4r	.
4c# 4a	4ff# 4ccc#	.
4c#X 4a	4ff# 4cccn	.
=111	=111	=111
4C#	4bb	.
4c# 4b	4ee#X 4aa	.
4c# 4b	4ee# 4gg#	.
=112	=112	=112
4F#	8gg#L	.
.	8aaJ	.
4c# 4a	4ff#	.
4r	4cc#	.
*clefG2	*	*
=113	=113	=113
*^	*^	*
4raa	[2.B	4ccc#	4rc	.
[4a	.	4cccn	[2dd#	.
[4f# 4a_	.	4bb	.	.
=114	=114	=114	=114	=114
2.f#] 2.a] 2.dd#	2.B]	4aa#X	2.dd#]	.
.	.	4aan	.	.
.	.	4gg#	.	.
*v	*v	*	*	*
=115	=115	=115	=115
2.B 2.f#	4ff#	2.dd#	.
.	4gg#	.	.
.	4ff#	.	.
=116	=116	=116	=116
2.A 2.d#	4ee#X	2.cc#	.
.	4ff#	.	.
.	4gg#	.	.
=117	=117	=117	=117
*^	*	*	*
4raa	[2.G#	4aa	[2.b#X	.
[4f#	.	4gg#	.	.
[4d# 4f#_	.	4ggn	.	.
=118	=118	=118	=118	=118
2.d#] 2.f#] 2.b#X	2.G#]	4ff#	2.b#]	.
.	.	4ffn	.	.
.	.	4ee	.	.
*v	*v	*	*	*
*clefF4	*	*	*
=119	=119	=119	=119
2.AA 2.D# 2.F# 2.c#	4dd#	2.f# 2.cc#	.
.	4cc##X	.	.
.	4dd#	.	.
=120	=120	=120	=120
2.GG# 2.D# 2.F# 2.B#X	2.gg#	2.f# 2.b#X	.
*	*v	*v	*
*	*clefF4	*
=121	=121	=121
*^	*	*
2GG#	[2.CC#	4r	.
.	.	4E 4G# 4c#	.
4GG#	.	4r	.
=122	=122	=122	=122
2BB	2.CC#_	4r	.
.	.	4E 4G# 4c#	.
4BB	.	4r	.
=123	=123	=123	=123
2BB-X	2.CC#_	4r	.
.	.	4E 4Gn 4c#	.
4BB-	.	4r	.
=124	=124	=124	=124
2AA	2.CC#]	4r	.
.	.	4D# 4F# 4B#X	.
4AA	.	4r	.
=125	=125	=125	=125
2GG#	[2.CC#	4r	.
.	.	4E 4G# 4c#	.
4GG#	.	4r	.
=126	=126	=126	=126
2C#	2.CC#]	4r	.
.	.	4E 4G# 4c#	.
4C#	.	4r	.
=127	=127	=127	=127
2E	[2.DD#	4r	.
.	.	4G# 4c#	.
4E	.	4r	.
=128	=128	=128	=128
2D#	2.DD#]	4r	.
.	.	4F##X 4c# 4d#	.
4D#	.	4r	.
=129	=129	=129	=129
2D#	2.GG#	4r	.
.	.	4G# 4B#X 4d#	.
4F#	.	4r	.
*v	*v	*	*
=130	=130	=130
2A	4r	.
.	4B#X 4d# 4f#	.
4G#	4r	.
=131	=131	=131
2F#	4r	.
.	4B#X 4d# 4a	.
4E	4r	.
=132	=132	=132
2D#	4r	.
.	4F# 4B#X 4g#	.
4C#	4r	.
=133	=133	=133
2BB#X	4r	.
.	4G# 4d# 4f# 4g#	.
4AA	4r	.
=134	=134	=134
2GG#	4r	.
.	4D# 4B#X 4f#	.
4FF##X	4r	.
=135	=135	=135
2AA	4r	.
.	4D# 4B#X 4f#	.
4GG#	4r	.
=136	=136	=136
2BBn	4r	.
.	4D# 4F# 4d#	.
4AA	4r	.
=137	=137	=137
*^	*	*
2GG#	[2.CC#	4r	.
.	.	4E 4G# 4c#	.
4GG#	.	4r	.
=138	=138	=138	=138
2BB	2.CC#_	4r	.
.	.	4E 4G# 4c#	.
4BB	.	4r	.
=139	=139	=139	=139
2BB-X	2.CC#_	4r	.
.	.	4E 4Gn 4c#	.
4BB-	.	4r	.
=140	=140	=140	=140
2AA	2.CC#]	4r	.
.	.	4D# 4F# 4B#X	.
4AA	.	4r	.
=141	=141	=141	=141
2GG#	[2.CC#	4r	.
.	.	4E 4G# 4c#	.
4GG#	.	4r	.
=142	=142	=142	=142
2BB	2.CC#_	4r	.
.	.	4E 4G# 4c#	.
4BB	.	4r	.
=143	=143	=143	=143
2BB-X	2.CC#_	4r	.
.	.	4E 4Gn 4c#	.
4BB-	.	4r	.
=144	=144	=144	=144
2AA	2.CC#]	4r	.
.	.	4C# 4D##X 4F##X	.
4AA	.	4r	.
=145	=145	=145	=145
2GG#	[2.CC#	4r	.
.	.	4C# 4E#X 4G#	.
4BB	.	4r	.
=146	=146	=146	=146
2Dn	2.CC#_	4r	.
.	.	4E#X 4G# 4B	.
4C#	.	4r	.
=147	=147	=147	=147
2BB	2.CC#_	4r	.
.	.	4E#X 4G# 4dn	.
4AA	.	4r	.
=148	=148	=148	=148
2.GG#	2.CC#]	4r	.
.	.	2E#X 2B 2c#	.
=149	=149	=149	=149
2AA	[2.CC#	4r	.
.	.	4F# 4c#	.
4C#	.	4r	.
=150	=150	=150	=150
2G#	2.CC#]	4r	.
.	.	4A 4c#	.
4F#	.	4r	.
=151	=151	=151	=151
2AA	[2.CC#	4r	.
.	.	4F# 4c#	.
4C#	.	4r	.
=152	=152	=152	=152
2G#	2.CC#]	4r	.
.	.	4A 4c#	.
4F#	.	4r	.
=153	=153	=153	=153
2GG#	2.CC#	4r	.
.	.	4E#X 4c#	.
4C#	.	4r	.
*v	*v	*	*
*	*clefG2	*
=154	=154	=154
2E#X	4r	.
.	4c# 4g#	.
4G#	4r	.
=155	=155	=155
2c#	4r	.
.	4g# 4ee#X	.
4e#X	4r	.
*clefG2	*	*
=156	=156	=156
2g#	4r	.
.	4ee#X 4ccc#	.
4cc#	4r	.
=157	=157	=157
4ee#X	4ccc# 4cccc#	.
4r	4r	.
4r	4r	.
*clefF4	*	*
=158	=158	=158
4C# 4G# 4c#	4e#X 4cc# 4ee#X	.
4r	4r	.
4r	4r	.
*	*clefF4	*
=159	=159	=159
2.CC# 2.GG# 2.C#	2.E#X 2.c#	.
==	==	==
*-	*-	*-
!!!system-decoration: {(*)}
!!!ENC: Bryan Jacob Bell
!!!END: November 2021 to April 2022
!!!PED: Günter Philipp
!!!PTL: Ausgewählte Klavierwerke (Edition Peters)
